!!!COM: Scriabin, Alexander
!!!OTL@@FR: Mazurka en mi bémol mineur
!!!OTL@@EN: Mazurka in Eb Minor
!!!OPR@@FR: 9 Mazurkas
!!!OPR@@EN: 9 Mazurkas
!!!OPS: 25
!!!ONM: 9
!!!ODT: 1899
!!!AGN: Mazurka
**kern	**kern	**dynam
*staff2	*staff1	*staff1/2
*Ipiano	*Ipiano	*
*clefF4	*clefG2	*
*k[b-e-a-d-g-c-]	*k[b-e-a-d-g-c-]	*
*e-:	*e-:	*
*M3/4	*M3/4	*
=1	=1	=1
*^	*	*
8.r	2.B-	4r	.
16BB-	.	.	.
2Cn	.	4g-	.
.	.	4f	.
=2	=2	=2	=2
8.r	2.B-	4r	.
16Cn	.	.	.
2D-	.	4g-	.
.	.	4f	.
=3	=3	=3	=3
8.r	2.B-	4r	.
16D-	.	.	.
[2Dn	.	8g-L	.
.	.	8en	.
.	.	8g-	.
.	.	8fJ	.
=4	=4	=4	=4
4D]	2c-	8a-L	.
.	.	16r	.
.	.	16ffJk	.
4E-	.	4.ff	.
4r	4c- [4a-	.	.
.	.	8ee-X	.
*v	*v	*	*
=5	=5	=5
4G- 4a-]	8dd-XL	.
.	8ddnJ	.
4F 4dn	4.ccc-	.
4G- 4e-	.	.
.	8ccc-	.
!!LO:LB:g=original
=6	=6	=6
*^	*	*
2A-	4f-X	8ccc-L	.
.	.	8bb-	.
.	4fn	8dd-X	.
.	.	8ddn	.
4G- 4B-	4r	8ff	.
.	.	8ee-J	.
*v	*v	*	*
=7	=7	=7
2F 2e-	8gg-L	.
.	8b-	.
.	8a-	.
.	8an	.
4An 4g-	8dd-X	.
.	8cc-J	.
=8	=8	=8
*^	*	*
2.B-	4g-	8ee-L	.
.	.	8dd-	.
.	4f	8ee-	.
.	.	8ddn	.
.	4dn	8b-	.
.	.	8a-XJ	.
=9	=9	=9	=9
8.r	2.B-	4r	.
16BB-	.	.	.
2Cn	.	4g-	.
.	.	4f	.
=10	=10	=10	=10
8.r	2.B-	4r	.
16Cn	.	.	.
2D-	.	4g-	.
.	.	4f	.
=11	=11	=11	=11
8.r	2.B-	4r	.
16D-	.	.	.
[2Dn	.	8g-L	.
.	.	8en	.
.	.	8g-	.
.	.	8fJ	.
!!LO:LB:g=original
=12	=12	=12	=12
4D]	2c-	8a-L	.
.	.	16r	.
.	.	16ffJk	.
4E-	.	4.ff	.
4r	4c- [4a-	.	.
.	.	8ee-X	.
*v	*v	*	*
=13	=13	=13
4G- 4a-]	8dd-XL	.
.	8ddnJ	.
4F 4dn	4.ccc-	.
4G- 4e-	.	.
.	8ccc-	.
=14	=14	=14
4A- 4f-X	8ccc-L	.
.	8bb-	.
4A-- 4fn	8dd-X	.
.	8ddn	.
*clefG2	*	*
4dn 4cc-	8een	.
.	8ffJ	.
=15	=15	=15
*^	*	*
4.e-	4cc-	8aa-L	.
.	.	8gg-	.
.	4g-	8b-	.
4.G-	.	8cc-	.
.	4b-	8ee-X	.
.	.	8dd-J	.
=16	=16	=16	=16
2c-	4a-	8ff-XL	.
.	.	8dd-	.
.	4g-	8ff-	.
.	.	8ee-J	.
8e-L	4r	4cc-	.
8fnJ	.	.	.
*v	*v	*	*
!!LO:LB:g=original
=17	=17	=17
*	*^	*
2g-	2.b-	8r	.
.	.	8ccn	.
.	.	8ee-L	.
.	.	8dd-J	.
4d-	.	[4ff-X	.
=18	=18	=18	=18
4d-	2b-	8ff-L]	.
.	.	8ee-	.
4cn	.	8gg-	.
.	.	8ff-XJ	.
4c#X	8eenL	[4bb-	.
.	8gg-J	.	.
=19	=19	=19	=19
2dn	2ffn	8bb-L]	.
.	.	8aan	.
.	.	8ccc-X	.
.	.	8bb-	.
[4c#X	[4b-	8gg-	.
.	.	8eenJ	.
=20	=20	=20	=20
4c#]	4b-]	4.gg-	.
4dn	4.b-	.	.
.	.	8ff	.
4f	.	8.ddnL	.
.	8a-X	.	.
.	.	16ddJk	.
=21	=21	=21	=21
4.f	2g-	8ddnL	.
.	.	8b-	.
.	.	8dd	.
8e-	.	8ccnJ	.
8dnL	4b-	[4ee-	.
8cnJ	.	.	.
!!LO:LB:g=original
=22	=22	=22	=22
2f	2an	8ee-L]	.
.	.	8bn	.
.	.	8ddn	.
.	.	8ccn	.
8dnL	4a	8ff	.
8fJ	.	8ddJ	.
=23	=23	=23	=23
4b-	4b-	8b-XL	.
.	.	8ddn	.
4r	4r	8an	.
.	.	8cc-X	.
4r	4r	8b-	.
.	.	8g-J	.
*	*v	*v	*
*clefF4	*	*
=24	=24	=24
8r	8f	.
8b-L	8r	.
8en	4r	.
8g-	.	.
8f	4r	.
8dnJ	.	.
=25	=25	=25
*^	*	*
8.r	2.B-	4r	.
16BB-	.	.	.
2Cn	.	4g-	.
.	.	4f	.
=26	=26	=26	=26
8.r	2.B-	4r	.
16Cn	.	.	.
2D-	.	4g-	.
.	.	4f	.
=27	=27	=27	=27
8.r	2.B-	4r	.
16D-	.	.	.
[2Dn	.	8g-L	.
.	.	8en	.
.	.	8g-	.
.	.	8fnJ	.
!!LO:LB:g=original
=28	=28	=28	=28
4D]	2c-	8a-L	.
.	.	16r	.
.	.	16ffJk	.
4E-	.	4.ff	.
4r	4c- [4a-	.	.
.	.	8ee-X	.
*v	*v	*	*
=29	=29	=29
4G- 4a-]	8dd-XL	.
.	8ddnJ	.
4F 4dn	4.ccc-	.
4G- 4e-	.	.
.	8ccc-	.
=30	=30	=30
*^	*	*
2A-	4f-X	8ccc-L	.
.	.	8bb-	.
.	4fn	8dd-X	.
.	.	8ddn	.
4r	4G- [4b-	8ff	.
.	.	8ee-J	.
*v	*v	*	*
=31	=31	=31
4A- 4b-]	8ee-L	.
.	8eenJ	.
*clefG2	*	*
4Gn 4en	4.ddd-	.
4A- 4f	.	.
.	8ddd-	.
=32	=32	=32
*^	*	*
2B-	4g-X	8ddd-L	.
.	.	8cccn	.
.	4gn	8ee-X	.
.	.	8een	.
4A-	4ccn	8ggn	.
.	.	8ffJ	.
!!LO:LB:g=original
=33	=33	=33	=33
2An	4ccn	8ffL	.
.	.	8gg-XJ	.
.	4cc-X	4.fff	.
4r	4A [4g-	.	.
.	.	8eee-	.
*v	*v	*	*
=34	=34	=34
4B- 4g-]	8eee-L	.
.	8dddn	.
4e- 4cc-	8ff	.
.	8gg-	.
4g- 4b-	8ddd-X	.
.	8cccnJ	.
=35	=35	=35
*^	*	*
4g-	2.a-	8ccc-XL	.
.	.	8ee-	.
4f	.	8dd-	.
.	.	8ddn	.
4B-	.	8gg-	.
.	.	8ffJ	.
=36	=36	=36	=36
[2e-	4cc-	8aa-L	.
.	.	8ff	.
.	4b-	8aa-	.
.	.	8gg-	.
8e-]	8g-	8ee-	.
8r	8r	8cc-J	.
*v	*v	*	*
*clefF4	*	*
=37	=37	=37
4EE-	8r	.
.	8b-	.
4BB- 4A-	8e-L	.
.	16r	.
.	16dnJk	.
4r	[4g-	.
!!LO:LB:g=original
=38	=38	=38
4EE-	8g-L]	.
.	8f	.
4BB- 4G-	8B-	.
.	8cn	.
4r	8dn	.
.	8e-J	.
=39	=39	=39
*^	*	*
*	*^	*	*
2.EE-	4r	4r	8fL	.
.	.	.	8g-	.
.	4AA-	2G-	8dd-X	.
.	.	.	8cc-X	.
.	4AAn	.	8ee-	.
.	.	.	8c-J	.
*	*v	*v	*	*
=40	=40	=40	=40
2EE-	4r	8B-L	.
.	.	8dn	.
.	4BB- 4G-	8g-	.
.	.	8e-	.
4r	4r	8dd-X	.
.	.	8cc-J	.
=41	=41	=41	=41
2.EE-	4r	8r	.
.	.	8b-	.
.	4BB- 4A-	8e-L	.
.	.	16r	.
.	.	16dnJk	.
.	4r	[4g-	.
=42	=42	=42	=42
*	*^	*	*
2EE-	4r	4r	8g-L]	.
.	.	.	8f	.
.	4.BB-	4G-	8B-	.
.	.	.	8cn	.
4GG-	.	4B-	8dn	.
.	8Cn	.	8e-J	.
*	*v	*v	*	*
!!LO:LB:g=original
=43	=43	=43	=43
2.FF	4r	8enL	.
.	.	8fJ	.
.	4D-X 4B-	4dd-X	.
.	4E- 4An	4cc-X	.
=44	=44	=44	=44
2BB-	4E- 4An	4ff	.
.	4Dn 4B-	8b-L	.
.	.	8a-X	.
4r	4r	8g-	.
.	.	8fJ	.
*v	*v	*	*
=45	=45	=45
4EE-	8r	.
.	8b-	.
4BB- 4A-X	8e-L	.
.	16r	.
.	16dnJk	.
4r	[4g-	.
=46	=46	=46
4EE-	8g-L]	.
.	8f	.
4BB- 4G-	8B-	.
.	8cn	.
4r	8dn	.
.	8e-J	.
=47	=47	=47
*^	*	*
*	*^	*	*
2.EE-	4r	4r	8fL	.
.	.	.	8g-	.
.	4AA-	2G-	8dd-X	.
.	.	.	8cc-X	.
.	4AAn	.	8ee-	.
.	.	.	8c-J	.
*	*v	*v	*	*
*v	*v	*	*
!!LO:LB:g=original
=48	=48	=48
4EE-	8B-L	.
.	8dn	.
4BB- 4G-	8g-	.
.	8e-	.
4r	8dd-X	.
.	8cc-J	.
=49	=49	=49
*^	*^	*
2.BB-	4r	8r	4r	.
.	.	8b-	.	.
.	4r	8e-L	4r	.
.	.	16r	.	.
.	.	[16dnJk	.	.
.	[4c-	4d]	[4g-	.
=50	=50	=50	=50	=50
2E-	4.c-]	2e-	8g-L]	.
.	.	.	8g-	.
.	.	.	8f	.
.	8B-	.	8g-	.
4E--	8c-L	4g-	8a-	.
.	8cnJ	.	8anJ	.
=51	=51	=51	=51	=51
2.D-	8d-L	2.g-	8b-L	.
.	8B-J	.	8gg-	.
.	4An	.	8ccn	.
.	.	.	8ee-	.
.	8B-L	.	8dd-	.
.	8d-J	.	8b-J	.
*v	*v	*	*	*
=52	=52	=52	=52
4DD- 4D-	2.c-X 2.f	8b-L	.
.	.	8a-X	.
4EE-- 4E--	.	8gn	.
.	.	8a-J	.
4DD- 4D-	.	4r	.
!!LO:LB:g=original
=53	=53	=53	=53
4GGG- 4GG-	4r	4r	.
4GGGn 4GGn	[2c-	[2f	.
4AAA- 4AA-	.	.	.
=54	=54	=54	=54
4DD- 4D-	4c-]	4f]	.
4CCn 4Cn	2A- 2f	4.ee-	.
4CC-X 4C-X	.	.	.
.	.	8ee-	.
=55	=55	=55	=55
2BBB- 2BB-	2A- 2f	4ee-	.
.	.	4dd-	.
4BBB- 4BB-	4A- 4d-	4f	.
=56	=56	=56	=56
*	*	*^	*
4BBB- 4BB-	4F	2.d-	4a-	.
2EE- 2E-	4.G-	.	4g-	.
.	.	.	4b-	.
.	8G-	.	.	.
*	*	*v	*v	*
=57	=57	=57	=57
2AAA- 2AA-	2G- 2e-	4dd-	.
.	.	4cc-	.
4AAA- 4AA-	4G- 4c-	4e-	.
=58	=58	=58	=58
*	*	*^	*
4AAA- 4AA-	4E-	2.c-	4g-	.
2DD- 2D-	4.F	.	4f	.
.	.	.	4d-	.
.	8r	.	.	.
*	*	*v	*v	*
=59	=59	=59	=59
4GGG- 4GG-	4r	4r	.
4GGGn 4GGn	[2c-	[2f	.
4AAA- 4AA-	.	.	.
!!LO:LB:g=original
=60	=60	=60	=60
4DD- 4D-	4c-]	4f]	.
4CCn 4Cn	2A- 2f	4.ee-	.
4CC-X 4C-X	.	.	.
.	.	8ee-	.
=61	=61	=61	=61
2BBB- 2BB-	2A- 2f	4ee-	.
.	.	4ddn	.
4BBB- 4BB-	4A- [4dn	4f	.
=62	=62	=62	=62
*	*	*^	*
4BBB- 4BB-	4F	4d]	4a-	.
2EE- 2E-	4.Gn	4d-X	4gn	.
.	.	4B-	4b-	.
.	8G	.	.	.
=63	=63	=63	=63	=63
2.AAA- 2.AA-	2G-X	4f	4dd-	.
.	.	4e-	4ccn	.
.	4G-	4cn	4e-	.
=64	=64	=64	=64	=64
4DD- 4D-	4B-	2d-	4g-	.
4D-	4A-	.	4f	.
4Cn	4r	4r	4r	.
*	*	*v	*v	*
=65	=65	=65	=65
*^	*	*	*
2.BB-	2B-	2.d-	4f	.
.	.	.	4en	.
.	4F	.	4f	.
=66	=66	=66	=66	=66
2.BB-	2.F	2.d-	4ccn	.
.	.	.	4b-	.
.	.	.	4a-	.
=67	=67	=67	=67	=67
2.BB-	4F	2.d-	2.a-	.
.	4En	.	.	.
.	4F	.	.	.
!!LO:LB:g=original
=68	=68	=68	=68	=68
2.BB-	4B-	2.d-	4g-	.
.	4G-	.	4.dd-	.
.	4F	.	.	.
.	.	.	8b-	.
=69	=69	=69	=69	=69
2BB-	2.E-	2d-	2g-	.
4AA-	.	4c-X	4g-	.
=70	=70	=70	=70	=70
2.D-	2.D-	2.c-	4f	.
.	.	.	4e-	.
.	.	.	4d-	.
=71	=71	=71	=71	=71
2.AA-	2.E-	2.c-	4g-	.
.	.	.	4a-	.
.	.	.	4g-	.
=72	=72	=72	=72	=72
2.D-	2.D-	2.c-	4f	.
.	.	.	4e-	.
.	.	.	4d-	.
*v	*v	*	*	*
=73	=73	=73	=73
4GGG- 4GG-	4r	4r	.
4GGGn 4GGn	[2c-	[2f	.
4AAA- 4AA-	.	.	.
=74	=74	=74	=74
4DD- 4D-	4c-]	4f]	.
4CCn 4Cn	2A- 2f	4.ee-	.
4CC-X 4C-X	.	.	.
.	.	8ee-	.
=75	=75	=75	=75
2BBB- 2BB-	2A- 2f	4ee-	.
.	.	4dd-	.
4BBB- 4BB-	4A- 4d-	4f	.
!!LO:LB:g=original
=76	=76	=76	=76
*	*	*^	*
4BBB- 4BB-	4F	2.d-	4a-	.
2EE- 2E-	4.G-	.	4g-	.
.	.	.	4b-	.
.	8G-	.	.	.
*	*	*v	*v	*
=77	=77	=77	=77
2AAA- 2AA-	2G- 2e-	4dd-	.
.	.	4cc-	.
4AAA- 4AA-	4G- 4c-	4e-	.
=78	=78	=78	=78
*	*	*^	*
4AAA- 4AA-	4E-	2.c-	4g-	.
2DD- 2D-	4.F	.	4f	.
.	.	.	4a-	.
.	8F	.	.	.
*	*	*v	*v	*
=79	=79	=79	=79
2.GG-	2F 2d-	4cc-	.
.	.	4b-	.
.	4G- 4B-	4d-	.
=80	=80	=80	=80
2C- 2c-	2G- 2An	4f	.
.	.	4e-	.
4C- 4c-	4r	4r	.
=81	=81	=81	=81
4BB- 4B-	2G- 2B-	4f	.
4r	.	4e-	.
4BB- 4B-	4r	4r	.
=82	=82	=82	=82
2AAn 2An	2G- 2c-	4f	.
.	.	4e-	.
4AA-X 4A-X	4r	4r	.
=83	=83	=83	=83
4r	8.r	2.b-	.
.	16B-	.	.
4GG- 4G-	2cn	.	.
4FF 4F	.	.	.
!!LO:LB:g=original
=84	=84	=84	=84
4r	8.r	2.b-	.
.	16cn	.	.
4GG- 4G-	2d-	.	.
4FF 4F	.	.	.
=85	=85	=85	=85
4r	8.r	2.b-	.
.	16d-	.	.
8GG-L 8G-	2dn	.	.
8EEn 8En	.	.	.
8GG- 8G-	.	.	.
8FFJ 8F	.	.	.
=86	=86	=86	=86
8AA-L 8A-	4dn	2cc-	.
16r	.	.	.
16FJk 16f	.	.	.
4.F 4.f	4e-	.	.
.	4cc-	[4aa-	.
8E- 8e-	.	.	.
=87	=87	=87	=87
8D-L 8d-	4g-	4aa-]	.
8DnJ 8dn	.	.	.
4.c- 4.cc-	4f	4ddn	.
.	4g-	4ee-	.
8c- 8cc-	.	.	.
=88	=88	=88	=88
8c-L 8cc-	2a-	4een	.
8B- 8b-	.	.	.
8D-X 8d-X	.	4ff	.
8Dn 8dn	.	.	.
8F 8f	4g-	4b-	.
8E-J 8e-	.	.	.
=89	=89	=89	=89
8G-L 8g-	2g-	2ee-X	.
8BB- 8B-	.	.	.
8AA- 8A-	.	.	.
8AAn 8An	.	.	.
8D-X 8d-X	4e-	4an	.
8C-J 8c-	.	.	.
*	*v	*v	*
!!LO:LB:g=original
=90	=90	=90
*^	*	*
4BB- 4B-	8r	4dn 4b-	.
.	8b-L	.	.
4r	8cn	4r	.
.	8g-	.	.
4r	8f	4r	.
.	8dnJ	.	.
=91	=91	=91	=91
8.r	2.B-	4r	.
16BB-	.	.	.
2Cn	.	4g-	.
.	.	4f	.
=92	=92	=92	=92
8.r	2.B-	4r	.
16Cn	.	.	.
2D-	.	4g-	.
.	.	4f	.
=93	=93	=93	=93
8.r	2.B-	4r	.
16D-	.	.	.
[2Dn	.	8g-L	.
.	.	8en	.
.	.	8g-	.
.	.	8fJ	.
=94	=94	=94	=94
4D]	2c-	8a-L	.
.	.	16r	.
.	.	16ffJk	.
4E-	.	4.ff	.
4r	4c- [4a-	.	.
.	.	8ee-X	.
*v	*v	*	*
=95	=95	=95
4G- 4a-]	8dd-XL	.
.	8ddnJ	.
4F 4dn	4.ccc-	.
4G- 4e-	.	.
.	8ccc-	.
!!LO:LB:g=original
=96	=96	=96
*^	*	*
2A-	4f-X	8ccc-L	.
.	.	8bb-	.
.	4fn	8dd-X	.
.	.	8ddn	.
4r	4G- [4b-	8ff	.
.	.	8ee-J	.
*v	*v	*	*
=97	=97	=97
4A- 4b-]	8ee-L	.
.	8eenJ	.
*clefG2	*	*
4Gn 4en	4.ddd-	.
4A- 4f	.	.
.	8ddd-	.
=98	=98	=98
*^	*	*
2B-	4g-X	8ddd-L	.
.	.	8cccn	.
.	4gn	8ee-X	.
.	.	8een	.
4A-	[4ccn	8ggn	.
.	.	8ffJ	.
=99	=99	=99	=99
2An	4cc]	8ffL	.
.	.	8gg-XJ	.
.	4cc-X	4.fff	.
4r	4A [4g-	.	.
.	.	8eee-	.
*v	*v	*	*
=100	=100	=100
4B- 4g-]	8eee-L	.
.	8dddn	.
4e- 4cc-	8ff	.
.	8gg-	.
4g- 4b-	8ddd-X	.
.	8cccnJ	.
=101	=101	=101
*^	*	*
4g-	2.a-	8ccc-XL	.
.	.	8ee-	.
4f	.	8dd-	.
.	.	8ddn	.
4B-	.	8gg-	.
.	.	8ffJ	.
!!LO:LB:g=original
=102	=102	=102	=102
[2e-	4cc-	8aa-L	.
.	.	8ff	.
.	4b-	8aa-	.
.	.	8gg-	.
8e-]	8g-	8ee-	.
8r	8r	8cc-J	.
*v	*v	*	*
*clefF4	*	*
=103	=103	=103
4EE-	8r	.
.	8b-	.
4BB- 4A-	8e-L	.
.	16r	.
.	16dnJk	.
4r	[4g-	.
=104	=104	=104
4EE-	8g-L]	.
.	8f	.
4BB- 4G-	8B-	.
.	8cn	.
4r	8dn	.
.	8e-J	.
=105	=105	=105
*^	*	*
*	*^	*	*
2.EE-	4r	4r	8fL	.
.	.	.	8g-	.
.	4AA-	2G-	8dd-X	.
.	.	.	8cc-X	.
.	4AAn	.	8ee-	.
.	.	.	8c-J	.
*	*v	*v	*	*
=106	=106	=106	=106
2EE-	4r	8B-L	.
.	.	8dn	.
.	4BB- 4G-	8g-	.
.	.	8e-	.
4r	4r	8dd-X	.
.	.	8cc-J	.
!!LO:LB:g=original
=107	=107	=107	=107
2EE-	4r	8r	.
.	.	8b-	.
.	4BB- 4A-	8e-L	.
.	.	16r	.
.	.	16dnJk	.
4r	4r	[4g-	.
=108	=108	=108	=108
*	*^	*	*
2EE-	4r	4r	8g-L]	.
.	.	.	8f	.
.	4.BB-	4G-	8B-	.
.	.	.	8cn	.
4GG-	.	4B-	8dn	.
.	8Cn	.	8e-J	.
*	*v	*v	*	*
=109	=109	=109	=109
2.FF	4r	8enL	.
.	.	8fJ	.
.	4D-X 4B-	4dd-X	.
.	4E- 4An	4cc-X	.
=110	=110	=110	=110
2BB-	4E- 4An	4ff	.
.	4Dn 4B-	8b-L	.
.	.	8a-X	.
4r	4r	8g-	.
.	.	8fJ	.
*v	*v	*	*
=111	=111	=111
4EE-	8r	.
.	8b-	.
4BB- 4A-	8e-L	.
.	16r	.
.	16dnJk	.
4r	[4g-	.
=112	=112	=112
4EE-	8g-L]	.
.	8f	.
4BB- 4G-	8B-	.
.	8cn	.
4r	8dn	.
.	8e-J	.
!!LO:LB:g=original
=113	=113	=113
*^	*	*
*	*^	*	*
2.EE-	4r	4r	8fL	.
.	.	.	8g-	.
.	4AA-	2G-	8dd-X	.
.	.	.	8cc-X	.
.	4AAn	.	8ee-	.
.	.	.	8c-J	.
=114	=114	=114	=114	=114
2.EE-	4r	4r	8B-L	.
.	.	.	8dn	.
.	4BB-	2G-	8g-	.
.	.	.	8e-	.
.	4E-	.	8cc-	.
.	.	.	8b-J	.
*	*v	*v	*	*
=115	=115	=115	=115
2EE-	4r	8r	.
.	.	8ee-	.
.	4E- 4d-X	8a-L	.
.	.	16r	.
.	.	16gnJk	.
4r	4r	[4cc-	.
=116	=116	=116	=116
*	*^	*	*
2AA-	4r	4r	8cc-L]	.
.	.	.	8b-	.
.	4.E-	4c-	8e-	.
.	.	.	8f	.
4C-	.	4e-	8gn	.
.	8F	.	8a-J	.
*	*v	*v	*	*
=117	=117	=117	=117
*	*	*^	*
2BB-	2G- 2e-	4r	8anL	.
.	.	.	8b-J	.
.	.	4r	4.gg-X	.
4BB-	4d-	4b-	.	.
.	.	.	8gg-	.
*v	*v	*	*	*
=118	=118	=118	=118
4BB- 4c-	4a-X	8dd-L	.
.	.	8ddnJ	.
4E- 4B-	4g-	8.ffL	.
.	.	16ee-Jk	.
4r	4r	4ee-	.
*	*v	*v	*
==	==	==
*-	*-	*-
!!!system-decoration: {(*)}
!!!filter: flipper -a
!!!RDF**dynam: > = dim.
!!!ENC: Bryan Jacob Bell
!!!END: November 2021 to April 2022
!!!PED: Günter Philipp
!!!PTL: Ausgewählte Klavierwerke (Edition Peters)
